Numix-GalliumOS/22/actions/stock_calendar.svg

<?xml version="1.0" encoding="UTF-8" standalone="no"?>
<!-- Created with Inkscape (http://www.inkscape.org/) -->

<svg
   xmlns:dc="http://purl.org/dc/elements/1.1/"
   xmlns:cc="http://creativecommons.org/ns#"
   xmlns:rdf="http://www.w3.org/1999/02/22-rdf-syntax-ns#"
   xmlns:svg="http://www.w3.org/2000/svg"
   xmlns="http://www.w3.org/2000/svg"
   xmlns:sodipodi="http://sodipodi.sourceforge.net/DTD/sodipodi-0.dtd"
   xmlns:inkscape="http://www.inkscape.org/namespaces/inkscape"
   width="22"
   height="22"
   id="svg13094"
   version="1.1"
   inkscape:version="0.91 r13725"
   sodipodi:docname="view-calendar-day.svg">
  <sodipodi:namedview
     id="base"
     pagecolor="#ffffff"
     bordercolor="#666666"
     borderopacity="1.0"
     inkscape:pageopacity="1"
     inkscape:pageshadow="2"
     inkscape:zoom="15.999999"
     inkscape:cx="-10.07892"
     inkscape:cy="14.317366"
     inkscape:document-units="px"
     inkscape:current-layer="svg13094"
     showgrid="true"
     inkscape:snap-bbox="true"
     inkscape:bbox-paths="true"
     inkscape:bbox-nodes="true"
     inkscape:snap-bbox-edge-midpoints="true"
     inkscape:snap-bbox-midpoints="true"
     inkscape:object-paths="true"
     inkscape:snap-intersection-paths="true"
     inkscape:object-nodes="true"
     inkscape:snap-smooth-nodes="true"
     inkscape:snap-midpoints="true"
     inkscape:snap-object-midpoints="true"
     inkscape:snap-center="true"
     showguides="false"
     inkscape:guide-bbox="true"
     inkscape:window-width="1366"
     inkscape:window-height="704"
     inkscape:window-x="0"
     inkscape:window-y="27"
     inkscape:window-maximized="1"
     inkscape:snap-global="true"
     fit-margin-top="0"
     fit-margin-left="0"
     fit-margin-right="0"
     fit-margin-bottom="0"
     showborder="true"
     inkscape:showpageshadow="false"
     inkscape:snap-page="false">
    <inkscape:grid
       type="xygrid"
       id="grid3075"
       empspacing="5"
       visible="true"
       enabled="true"
       snapvisiblegridlinesonly="true"
       originx="1.6362304e-08px"
       originy="18px" />
    <sodipodi:guide
       orientation="0,1"
       position="-11,30"
       id="guide9148" />
    <sodipodi:guide
       orientation="1,0"
       position="32,70"
       id="guide9150" />
  </sodipodi:namedview>
  <defs
     id="defs13096" />
  <metadata
     id="metadata13099">
    <rdf:RDF>
      <cc:Work
         rdf:about="">
        <dc:format>image/svg+xml</dc:format>
        <dc:type
           rdf:resource="http://purl.org/dc/dcmitype/StillImage" />
        <dc:title />
      </cc:Work>
    </rdf:RDF>
  </metadata>
  <path
     style="color:#000000;display:inline;overflow:visible;visibility:visible;fill:#dc322f;fill-opacity:1;fill-rule:nonzero;stroke:none;stroke-width:2.28571415;marker:none;enable-background:accumulate"
     d="M 1,2 1,5.6118599 1,20.014938 2.004527,21 19.995474,21 21,20.014938 21,5.6118599 21,2 10.999999,2 Z"
     id="rect4519"
     inkscape:connector-curvature="0"
     sodipodi:nodetypes="cccccccccc" />
  <path
     inkscape:connector-curvature="0"
     style="color:#000000;display:inline;overflow:visible;visibility:visible;fill:#f4f4f4;fill-opacity:1;fill-rule:nonzero;stroke:none;stroke-width:1;marker:none;enable-background:accumulate"
     d="M 2,5.5 2,19 20,19 20,5.5 Z"
     id="path4577"
     sodipodi:nodetypes="ccccc" />
  <path
     style="color:#000000;display:inline;overflow:visible;visibility:visible;fill:#dc7876;fill-opacity:1;fill-rule:nonzero;stroke:none;marker:none;enable-background:accumulate"
     d="m 1.6696072,1 -0.6696071,0.35157 0,1.14843 5.8358818,0 6.5495931,0 7.614525,0 0,-1.148429 -0.669607,-0.35157 -6.944918,0 -6.5495931,0 z"
     id="path6688"
     inkscape:connector-curvature="0"
     sodipodi:nodetypes="ccccccccccc" />
  <rect
     style="color:#000000;display:inline;overflow:visible;visibility:visible;fill:#e4e4e4;fill-opacity:1;fill-rule:nonzero;stroke:none;stroke-width:2.28571415;marker:none;enable-background:accumulate"
     id="rect3872"
     width="1.5"
     height="4"
     x="4"
     y="0" />
  <rect
     style="opacity:1;fill:#777f8a;fill-opacity:1;fill-rule:nonzero;stroke:none;stroke-width:2;stroke-linecap:butt;stroke-linejoin:round;stroke-miterlimit:4;stroke-dasharray:none;stroke-dashoffset:0;stroke-opacity:1"
     id="rect4425-0"
     width="1.5"
     height="1.5001239"
     x="17"
     y="15.999876"
     rx="0.375"
     ry="0.37503096" />
  <rect
     style="opacity:1;fill:#777f8a;fill-opacity:1;fill-rule:nonzero;stroke:none;stroke-width:2;stroke-linecap:butt;stroke-linejoin:round;stroke-miterlimit:4;stroke-dasharray:none;stroke-dashoffset:0;stroke-opacity:1"
     id="rect4425-70"
     width="1.5"
     height="1.5001239"
     x="12.5"
     y="15.999876"
     rx="0.375"
     ry="0.37503096" />
  <rect
     style="opacity:1;fill:#777f8a;fill-opacity:1;fill-rule:nonzero;stroke:none;stroke-width:2;stroke-linecap:butt;stroke-linejoin:round;stroke-miterlimit:4;stroke-dasharray:none;stroke-dashoffset:0;stroke-opacity:1"
     id="rect4425-41"
     width="1.5"
     height="1.5001239"
     x="8"
     y="15.999876"
     rx="0.375"
     ry="0.37503096" />
  <rect
     style="opacity:1;fill:#777f8a;fill-opacity:1;fill-rule:nonzero;stroke:none;stroke-width:2;stroke-linecap:butt;stroke-linejoin:round;stroke-miterlimit:4;stroke-dasharray:none;stroke-dashoffset:0;stroke-opacity:1"
     id="rect4425-0-7"
     width="1.5"
     height="1.5001239"
     x="17"
     y="6.999876"
     rx="0.375"
     ry="0.37503096" />
  <rect
     style="opacity:1;fill:#777f8a;fill-opacity:1;fill-rule:nonzero;stroke:none;stroke-width:2;stroke-linecap:butt;stroke-linejoin:round;stroke-miterlimit:4;stroke-dasharray:none;stroke-dashoffset:0;stroke-opacity:1"
     id="rect4425-70-9"
     width="1.5"
     height="1.5001239"
     x="12.5"
     y="6.999876"
     rx="0.375"
     ry="0.37503096" />
  <rect
     style="opacity:1;fill:#777f8a;fill-opacity:1;fill-rule:nonzero;stroke:none;stroke-width:2;stroke-linecap:butt;stroke-linejoin:round;stroke-miterlimit:4;stroke-dasharray:none;stroke-dashoffset:0;stroke-opacity:1"
     id="rect4425-41-8"
     width="1.5"
     height="1.5001239"
     x="8"
     y="6.999876"
     rx="0.375"
     ry="0.37503096" />
  <rect
     style="opacity:1;fill:#777f8a;fill-opacity:1;fill-rule:nonzero;stroke:none;stroke-width:2;stroke-linecap:butt;stroke-linejoin:round;stroke-miterlimit:4;stroke-dasharray:none;stroke-dashoffset:0;stroke-opacity:1"
     id="rect4425-0-7-9"
     width="1.5"
     height="1.5001239"
     x="17"
     y="9.999876"
     rx="0.375"
     ry="0.37503096" />
  <rect
     style="opacity:1;fill:#777f8a;fill-opacity:1;fill-rule:nonzero;stroke:none;stroke-width:2;stroke-linecap:butt;stroke-linejoin:round;stroke-miterlimit:4;stroke-dasharray:none;stroke-dashoffset:0;stroke-opacity:1"
     id="rect4425-70-9-7"
     width="1.5"
     height="1.5001239"
     x="12.5"
     y="9.999876"
     rx="0.375"
     ry="0.37503096" />
  <rect
     style="opacity:1;fill:#777f8a;fill-opacity:1;fill-rule:nonzero;stroke:none;stroke-width:2;stroke-linecap:butt;stroke-linejoin:round;stroke-miterlimit:4;stroke-dasharray:none;stroke-dashoffset:0;stroke-opacity:1"
     id="rect4425-41-8-0"
     width="1.5"
     height="1.5001239"
     x="8"
     y="9.999876"
     rx="0.375"
     ry="0.37503096" />
  <rect
     style="opacity:1;fill:#777f8a;fill-opacity:1;fill-rule:nonzero;stroke:none;stroke-width:2;stroke-linecap:butt;stroke-linejoin:round;stroke-miterlimit:4;stroke-dasharray:none;stroke-dashoffset:0;stroke-opacity:1"
     id="rect4425-0-1"
     width="1.5"
     height="1.5001239"
     x="17"
     y="12.999876"
     rx="0.375"
     ry="0.37503096" />
  <rect
     style="opacity:1;fill:#777f8a;fill-opacity:1;fill-rule:nonzero;stroke:none;stroke-width:2;stroke-linecap:butt;stroke-linejoin:round;stroke-miterlimit:4;stroke-dasharray:none;stroke-dashoffset:0;stroke-opacity:1"
     id="rect4425-70-4"
     width="1.5"
     height="1.5001239"
     x="12.5"
     y="12.999876"
     rx="0.375"
     ry="0.37503096" />
  <rect
     style="opacity:1;fill:#777f8a;fill-opacity:1;fill-rule:nonzero;stroke:none;stroke-width:2;stroke-linecap:butt;stroke-linejoin:round;stroke-miterlimit:4;stroke-dasharray:none;stroke-dashoffset:0;stroke-opacity:1"
     id="rect4425-41-7"
     width="1.5"
     height="1.5001239"
     x="8"
     y="12.999876"
     rx="0.375"
     ry="0.37503096" />
  <rect
     style="opacity:1;fill:#777f8a;fill-opacity:1;fill-rule:nonzero;stroke:none;stroke-width:2;stroke-linecap:butt;stroke-linejoin:round;stroke-miterlimit:4;stroke-dasharray:none;stroke-dashoffset:0;stroke-opacity:1"
     id="rect4425-46"
     width="1.5"
     height="1.5001239"
     x="3.5"
     y="15.999876"
     rx="0.375"
     ry="0.37503096" />
  <rect
     style="opacity:1;fill:#777f8a;fill-opacity:1;fill-rule:nonzero;stroke:none;stroke-width:2;stroke-linecap:butt;stroke-linejoin:round;stroke-miterlimit:4;stroke-dasharray:none;stroke-dashoffset:0;stroke-opacity:1"
     id="rect4425-46-6"
     width="1.5"
     height="1.5001239"
     x="3.5"
     y="6.999876"
     rx="0.375"
     ry="0.37503096" />
  <rect
     style="opacity:1;fill:#777f8a;fill-opacity:1;fill-rule:nonzero;stroke:none;stroke-width:2;stroke-linecap:butt;stroke-linejoin:round;stroke-miterlimit:4;stroke-dasharray:none;stroke-dashoffset:0;stroke-opacity:1"
     id="rect4425-46-6-0"
     width="1.5"
     height="1.5001239"
     x="3.5"
     y="9.999876"
     rx="0.375"
     ry="0.37503096" />
  <rect
     style="opacity:1;fill:#777f8a;fill-opacity:1;fill-rule:nonzero;stroke:none;stroke-width:2;stroke-linecap:butt;stroke-linejoin:round;stroke-miterlimit:4;stroke-dasharray:none;stroke-dashoffset:0;stroke-opacity:1"
     id="rect4425-46-4"
     width="1.5"
     height="1.5001239"
     x="3.5"
     y="12.999876"
     rx="0.375"
     ry="0.37503096" />
  <rect
     style="color:#000000;display:inline;overflow:visible;visibility:visible;fill:#e4e4e4;fill-opacity:1;fill-rule:nonzero;stroke:none;stroke-width:2.28571415;marker:none;enable-background:accumulate"
     id="rect3872-7"
     width="1.5"
     height="4"
     x="16.5"
     y="0" />
</svg>

<svg xmlns="http://www.w3.org/2000/svg" viewBox="0 0 22 22">
 <path d="m 1 2 0 3.612 0 14.403 1 0.985 17.991 0 1 -0.985 0 -14.403 0 -3.612 -10 0" style="visibility:visible;fill:#dc322f;fill-opacity:1;stroke:none;display:inline;color:#000;fill-rule:nonzero"/>
 <path d="m 2 5.5 0 13.5 18 0 0 -13.5" style="visibility:visible;fill:#f4f4f4;fill-opacity:1;stroke:none;display:inline;color:#000;fill-rule:nonzero"/>
 <path d="m 1.67 1 -0.67 0.352 0 1.148 5.836 0 6.55 0 7.615 0 0 -1.148 -0.67 -0.352 -6.945 0 -6.55 0 z" style="visibility:visible;fill:#dc7876;fill-opacity:1;stroke:none;display:inline;color:#000;fill-rule:nonzero"/>
 <rect width="1.5" height="4" x="4" style="visibility:visible;fill:#e4e4e4;fill-opacity:1;stroke:none;display:inline;color:#000;fill-rule:nonzero"/>
 <rect width="1.5" height="1.5" x="17" y="16" rx="0.375" style="fill:#777f8a;opacity:1;fill-opacity:1;stroke:none;fill-rule:nonzero"/>
 <rect width="1.5" height="1.5" x="12.5" y="16" rx="0.375" style="fill:#777f8a;opacity:1;fill-opacity:1;stroke:none;fill-rule:nonzero"/>
 <rect width="1.5" height="1.5" x="8" y="16" rx="0.375" style="fill:#777f8a;opacity:1;fill-opacity:1;stroke:none;fill-rule:nonzero"/>
 <rect width="1.5" height="1.5" x="17" y="7" rx="0.375" style="fill:#777f8a;opacity:1;fill-opacity:1;stroke:none;fill-rule:nonzero"/>
 <rect width="1.5" height="1.5" x="12.5" y="7" rx="0.375" style="fill:#777f8a;opacity:1;fill-opacity:1;stroke:none;fill-rule:nonzero"/>
 <rect width="1.5" height="1.5" x="8" y="7" rx="0.375" style="fill:#777f8a;opacity:1;fill-opacity:1;stroke:none;fill-rule:nonzero"/>
 <rect width="1.5" height="1.5" x="17" y="10" rx="0.375" style="fill:#777f8a;opacity:1;fill-opacity:1;stroke:none;fill-rule:nonzero"/>
 <rect width="1.5" height="1.5" x="12.5" y="10" rx="0.375" style="fill:#777f8a;opacity:1;fill-opacity:1;stroke:none;fill-rule:nonzero"/>
 <rect width="1.5" height="1.5" x="8" y="10" rx="0.375" style="fill:#777f8a;opacity:1;fill-opacity:1;stroke:none;fill-rule:nonzero"/>
 <rect width="1.5" height="1.5" x="17" y="13" rx="0.375" style="fill:#777f8a;opacity:1;fill-opacity:1;stroke:none;fill-rule:nonzero"/>
 <rect width="1.5" height="1.5" x="12.5" y="13" rx="0.375" style="fill:#777f8a;opacity:1;fill-opacity:1;stroke:none;fill-rule:nonzero"/>
 <rect width="1.5" height="1.5" x="8" y="13" rx="0.375" style="fill:#777f8a;opacity:1;fill-opacity:1;stroke:none;fill-rule:nonzero"/>
 <rect width="1.5" height="1.5" x="3.5" y="16" rx="0.375" style="fill:#777f8a;opacity:1;fill-opacity:1;stroke:none;fill-rule:nonzero"/>
 <rect width="1.5" height="1.5" x="3.5" y="7" rx="0.375" style="fill:#777f8a;opacity:1;fill-opacity:1;stroke:none;fill-rule:nonzero"/>
 <rect width="1.5" height="1.5" x="3.5" y="10" rx="0.375" style="fill:#777f8a;opacity:1;fill-opacity:1;stroke:none;fill-rule:nonzero"/>
 <rect width="1.5" height="1.5" x="3.5" y="13" rx="0.375" style="fill:#777f8a;opacity:1;fill-opacity:1;stroke:none;fill-rule:nonzero"/>
 <rect width="1.5" height="4" x="16.5" style="visibility:visible;fill:#e4e4e4;fill-opacity:1;stroke:none;display:inline;color:#000;fill-rule:nonzero"/>
</svg>
